X: 10
T: My Mind Will Never Be Easy
Z: Aberfoyle Whistler
S: https://thesession.org/tunes/191#setting54026
R: slip jig
M: 9/8
L: 1/8
K: Edor
g2 f|:edB BAB G2A|Bdd deB dgf|edB BAB G2A|1Bde efd egf:|2Bde efd edB||
|:def g3 fed|Bdd deB d z B|def g3 fed|1Bde efd edB:|2Bde efd egf||

%-------------------- TUNE SEPARATOR --------------------%

